X: 4
M:4/4
L:1/8
K:G
|:Bdde d2 BA|Bddf ef g2|1Bdde d2 B2|cABG EG D2:|
2gfge d2 B2|cABG EG G2||

